X:52
T: WENN DU IN MI GOSSLI GOHST
N: E0669
O: Europa, Mitteleuropa, Deutschland, Coburg
R: Liebes - Lied
M: 2/4
L: 1/16
K: G
 | G2B2B2c2 | B2d2d4 |
G2B2B2c2 | d4g2z2 |
G2B2B2c2 | B2d2d4 |
G2B2B2c2 | d4g2z2 |
B2B2B3A | A2G2G2z2 |
c2c2c3B | B2A2A3
A | BBB2c2A2 | A4G2z2

@@@ Tune index: 4365
